X:1
T:Sir George Clerk of Pennycuick
T:Sir George Clerk of Pennycuick
T:Nathaniel Gow
C:Nathaniel Gow
L:1/8
M:2/2
K:G
V:1 treble 
V:1
 g/a/ | b<g Tg2 d<B TB2 | c<e c<e [FA]3 B/c/ | d<B B2 G<E TE2 | c>A B>G (G/F/).E/.D/ Dg/a/ | %5
 b<g Tg2 d<B TB2 | c<e c<e [FA]3 B/c/ | d<B TB2 e>EE>G | G/F/E/D/ EF G2 :: d/c/ | B<d d2 d<bb>a | %11
 g>e e>d d3 d/c/ | B<d d2 e>B c2 | d>A B>G (G/F/).E/.D/ DE/F/ | G<B T[GB]2 B<d [Bd]2 | %15
 g>de>d !fermata![Bd]4 |{efgabc'} (d'<b) (b<g) (g<e) (e<c) | B>G A>F [DG]2 :| %18

